svg/mountain.svg

<svg xmlns="http://www.w3.org/2000/svg" viewBox="0 0 64 64" enable-background="new 0 0 64 64"><style type="text/css">.st0{fill:#343434;}</style><title>mountain</title><desc>Created with Sketch.</desc><path class="st0" d="M63.3 58.6l-28.6-55.6c-1.5-2.9-4-2.9-5.5 0l-28.5 55.6c-1.5 2.9-.1 5.3 3.3 5.3h56c3.3 0 4.8-2.4 3.3-5.3zm-31.3-52.1l12.3 24-6.6-3.1c-1-.5-2.6-.5-3.6 0l-3.3 1.6c-.5.2-1.2.1-1.5-.3l-5.4-6.4 8.1-15.8zm-27.5 53.4l17.5-33.9 5.6 6.8c.7.8 2.1 1.1 3.1.7l4.4-2.1c.5-.2 1.3-.2 1.8 0l10.4 5 12.2 23.7h-55z"/></svg>

<svg xmlns="http://www.w3.org/2000/svg" viewBox="0 0 64 64"><path d="M63.3 58.6L34.7 3c-1.5-2.9-4-2.9-5.5 0L.7 58.6C-.8 61.5.6 63.9 4 63.9h56c3.3 0 4.8-2.4 3.3-5.3zM32 6.5l12.3 24-6.6-3.1c-1-.5-2.6-.5-3.6 0L30.8 29c-.5.2-1.2.1-1.5-.3l-5.4-6.4L32 6.5zM4.5 59.9L22 26l5.6 6.8c.7.8 2.1 1.1 3.1.7l4.4-2.1c.5-.2 1.3-.2 1.8 0l10.4 5 12.2 23.7h-55z" fill="#343434"/></svg>
